X:62
T:Rat's Gone To Rest
S:George Hawkins
Z:abc-transcription Josh Larios <hades@elsewhere.org>, 2014.05.22
M:4/4
L:1/8
K:G
|: "G"Bd- dd dABd | edBA G2G2 | "C"Be- ee efgf | edBA "G"G2G2 :|
|: "G"DEGA BdBA | GBAG "C"E2E2 | "G"DEGA BdBA | "D"GBAF "G"G2G2 :|

